X:1
T:Weep No More
T:Weep No More
T:Stephen C. Foster, arr. by Peter Philip Bilhorn
T:Lillian Barker Beede, 1904
T:Public Domain Courtesy of the Cyber Hymnal™
T:Public Domain Courtesy of the Cyber Hymnal™
C:Stephen C. Foster, arr. by Peter Philip Bilhorn
Z:Public Domain
Z:Courtesy of the Cyber Hymnal™
%%score ( 1 2 ) 3
L:1/8
Q:1/4=90
M:4/4
K:G
V:1 treble 
V:2 treble 
V:3 bass 
V:1
"^Cheerful" B2 B2 G2 AB | cBce d2 GA | BGAB A2 A>F | G6 |: z B | B2 [B,DGB]2 [B,DG]2 A>B | %6
w: ~ ~ ~ ~ ~|~ ~ ~ ~ ~ ~ ~|~ ~ ~ ~ ~ ~ ~|~|1.~There’ll|be no night in the|
w: ~ ~ ~ ~ ~|~ ~ ~ ~ ~ ~ ~|~ ~ ~ ~ ~ ~ ~|~|2.~A|ri- ver flows in that|
w: ~ ~ ~ ~ ~|~ ~ ~ ~ ~ ~ ~|~ ~ ~ ~ ~ ~ ~|~|3.~Some|day the hosts of the|
 c>B ce (d2 z) c | B(A z) G G(F z) G | z2 [CDF]2 [CDF]2 z A | B2 [B,DGB]2 [B,DG]2 A>B | %10
w: New Je- ru- sa- lem, No|* dark- ness to sha- dow|* * the|* day; No sun nor|
w: ci- ty of the Lamb, A|* fount- ain of life for|* * the|* soul; And who- so-|
w: dead who sleep shall rise, And|* ga- ther, when trum- pets|* * shall|* sound, For Judg- ment|
 c>B c>e d2 G>A | B2 [DGB]2 AG B>A | (z2 [DGB]2 [DGB]2) (z B) | B2 [B,DGB]2 [B,DG]2 A>B | %14
w: moon, for the Lamb of God is|light, And His glo- ry pass-||* eth not a- way;|
w: e’er is a- thirst may come and|drink, Where those crys- tal wa-||* ters gent- ly roll;|
w: Day when the Book shall be un-|sealed, And the re- cord of||* the ag- es found;|
 c>c c>e d2 (z c) | BA (z G) GF (z G) | A2 [DEG]2 [DEG]2 [A,DF]2 | B2 [B,DGB]2 [B,DG]2 A>B | %18
w: There’ll be no death, nei- *|* ther * sor- row, *|* * * grief|nor pain, The right- eous|
w: When Je- sus died on *|* the * cross of *|* * * Cal-|va- ry, Sin’s bur- dens|
w: Then grant, O Lord, the *|* re- * cord- ing *|* * * an-|gel finds Our names have|
 cB c>e !fermata!d2 G>A | BGcB (z2 [DFc]2) | G2 [DGB]2 [B,DG]4"^Play 3 times" :| %21
w: shall dwell with Him there, And sing|His prais- es and *|* glo- ri-|
w: of sor- row to bear, He con-|quered death, and He *|* o- pened|
w: been all writ- ten there; With Je-|sus then we will *|* dwell for-|
V:2
 x8 | x8 | x8 | x6 |: x2 | x6 [B,FG]2 | x2 [CEG]2 x [A,EG]2 x | x2 [B,DG]2 x [A,=CG]2 x | A6 x2 | %9
 x6 [B,FG]2 | x2 [CEG]2 x/ [B,G]2 x3/2 | x6 [DF]2 | G6 [DGB]2 | x6 [B,DG]2 | %14
 x2 [CEG]2 x/ [B,DG]2 x3/2 | x2 [B,DG]2 x [A,=CG]2 x | x8 | x6 [B,DG]2 | %18
 x2 [CEG]2 x/ [B,DG]2 x3/2 | x2 [DGB]2 A3 x | x8 :| %21
V:3
 G,DB,D G,DB,D | G,ECE G,DB,D | D,B,CD D,EF,C | G,DB,D G,2 |: z2 | [G,,G,]6 z2 | %6
 [G,,G,]4 [G,,G,]4 | [G,,G,]4 [E,,E,]4 | [D,,D,]6 z2 | [G,,A,]6 z2 | [G,,G,]4 [G,,G,]4 | %11
 [D,,D,]4 [D,,D,]4 | [G,,G,]6 z2 | [G,,G,]6 z2 | [G,,G,]4 [G,,G,]4 | [G,,G,]4 [G,,E,]4 | %16
 [D,,D,]6 z2 | [G,,G,]6 z2 | [G,,G,]4 !fermata![G,,G,]4 | [D,,D,]4 [D,,D,]4 | %20
 [G,,G,]4 z4"^Play 3 times" :| %21

